src/icons/svg/purchaseCoinIllustration.svg

<?xml version="1.0" encoding="UTF-8"?>
<svg width="22px" height="22px" viewBox="0 0 22 22" version="1.1" xmlns="http://www.w3.org/2000/svg" xmlns:xlink="http://www.w3.org/1999/xlink">
    <!-- Generator: Sketch 55.2 (78181) - https://sketchapp.com -->
    <title>买币说明icon@1x</title>
    <desc>Created with Sketch.</desc>
    <g id="页面1" stroke="none" stroke-width="1" fill="none" fill-rule="evenodd">
        <g id="M端-买币1" transform="translate(-295.000000, -80.000000)" fill="#FFFFFF">
            <g id="tab" transform="translate(0.000000, 50.000000)">
                <g id="买币说明icon" transform="translate(295.000000, 30.000000)">
                    <path d="M10.9999843,0 C4.92589414,0 0,4.92329564 0,10.9999843 C0,17.0741059 4.92589414,22 10.9999843,22 C17.0741059,22 22,17.0741059 22,10.9999843 C22,4.92586284 17.0741059,0 10.9999843,0 Z M10.9999848,20 C6.17043547,20 2,15.8276907 2,10.9987851 C2,6.16987954 6.17043547,2 10.9999848,2 C15.8295635,2 20,6.17228004 20,10.9987851 C20.0023998,15.8276907 15.8295635,20 10.9999848,20 Z" id="Fill-1"></path>
                    <path d="M10.1320998,14.9970443 C10.1263293,14.7845614 10.1234441,14.6251721 10.1234441,14.5190207 C10.1234441,13.8934666 10.2097551,13.3534823 10.3826587,12.89914 C10.5093983,12.5568604 10.7138988,12.2115891 10.9962305,11.8633981 C11.2036163,11.6096801 11.5751443,11.2407996 12.1137702,10.753909 C12.6524313,10.2670185 13.0009829,9.88054817 13.1622048,9.59132623 C13.3235673,9.30214033 13.4042486,8.98646164 13.4042486,8.64418204 C13.4042486,8.02450313 13.1679753,7.48159923 12.6955692,7.0124426 C12.2231984,6.54332202 11.6442846,6.31014944 10.9586872,6.31014944 C10.2962069,6.31014944 9.74311957,6.52259637 9.29960118,6.94752626 C8.96836102,7.2661606 8.72068741,7.71758328 8.55932483,8.30485809 C8.46147281,8.66487165 8.12442699,8.9008557 7.76433439,8.85662896 L7.76144914,8.85662896 C7.22855854,8.79174867 6.88000692,8.24880873 7.03848426,7.7234946 C7.25744618,7.00061997 7.61739803,6.41348933 8.11288601,5.96491418 C8.82430991,5.32159 9.76335146,5 10.9328607,5 C12.1713696,5 13.1564343,5.34523526 13.8938254,6.03574183 C14.6312165,6.72621236 15,7.56129386 15,8.53788649 C15,9.10443565 14.8703751,9.62683017 14.6110198,10.1048177 C14.3518052,10.5828413 13.844917,11.1640606 13.0901792,11.8486199 C12.583291,12.3089095 12.2520508,12.6482335 12.0964587,12.8665917 C11.9408667,13.084986 11.8257032,13.3357483 11.7507924,13.6190229 C11.6758816,13.9023335 11.6327085,14.3625871 11.6211675,15 L10.1320998,15 L10.1320998,14.9970443 Z M10.0369923,17.1072594 C10.0369923,16.6128042 10.4344875,16.2143767 10.9213197,16.2143767 C11.4108965,16.2143767 11.8056472,16.6157174 11.8056472,17.1072594 C11.8056472,17.6015724 11.4080112,18 10.9213197,18 C10.4344875,18 10.0369923,17.5986593 10.0369923,17.1072594 Z" id="Fill-2"></path>
                </g>
            </g>
        </g>
    </g>
</svg>

<svg width="22" height="22" xmlns="http://www.w3.org/2000/svg"><g fill="#FFF" fill-rule="evenodd"><path d="M11 0C4.926 0 0 4.923 0 11c0 6.074 4.926 11 11 11s11-4.926 11-11S17.074 0 11 0zm0 20c-4.83 0-9-4.172-9-9.001C2 6.169 6.17 2 11 2s9 4.172 9 8.999C20.002 15.828 15.83 20 11 20z"/><path d="M10.132 14.997a19.267 19.267 0 01-.009-.478c0-.626.087-1.166.26-1.62.126-.342.33-.687.613-1.036.208-.253.58-.622 1.118-1.11.538-.486.887-.872 1.048-1.162.162-.289.242-.605.242-.947 0-.62-.236-1.162-.708-1.632-.473-.469-1.052-.702-1.737-.702-.663 0-1.216.213-1.66.638-.33.318-.578.77-.74 1.357a.738.738 0 01-.795.552h-.003a.88.88 0 01-.723-1.134c.22-.722.58-1.31 1.075-1.758.711-.643 1.65-.965 2.82-.965 1.238 0 2.223.345 2.96 1.036C14.632 6.726 15 7.56 15 8.538c0 .566-.13 1.089-.389 1.567-.26.478-.766 1.06-1.52 1.744-.508.46-.839.8-.995 1.018-.155.218-.27.469-.345.752-.075.283-.118.744-.13 1.381h-1.489v-.003zm-.095 2.11c0-.494.397-.893.884-.893a.89.89 0 01.885.893.889.889 0 01-.885.893.89.89 0 01-.884-.893z"/></g></svg>
